launcher/android/assets/skins/day/svg/finger.svg

<svg enable-background="new 0 0 74.74 104.78" height="104.783" viewBox="0 0 74.74 104.78" width="74.7387" xmlns="http://www.w3.org/2000/svg"><path d="m71.8892 76.8799c.5253-7.412-4.9067-27.6093-7.7974-32.036-1.4693-2.256-2.36-7.776-7.464-9.172-2.0106-.552-3.4733-.068-3.916.036-.0053-.5987-1.672-4.796-5.636-6.7547-2.448-1.2133-5.4213-.1093-5.5253-.0733-.0734-.2707-.7974-1.896-4.9174-4.5-1.8746-1.1827-5.4679-3.224-7.6879-1.8227-.2334.1453-.4427.2974-.6614.468-1.2493.9854-1.948 2.1827-2.348 3.324-.5627 1.0147-.6253 2.9107-.6253 3.6094-.0213.0666-.036.12-.068.1293-.0827.0427-1.8694-2.8067-3.844-6.6867-1.12-2.2093-3.952-4.4853-5.208-6.896-.12-.2346-2.8664-5.8522-2.9811-6.0868l-1.375-2.75c-7.87496-2.125-4.62496 6.25-4.73726 10.1328l.09869.188s-.01068-.0466-.02136-.1146l.052.052c.68802 2.9173 1.76135 6.0986 3.05203 8.98 3.172 7.052 5.5053 13.312 6.516 16.1813 2.276 6.4587 2.38 24.7867 2.38 24.7667l-1.3387.4373s-1.0667-2.6414-3.2706-5.4334c.1146-9.5306-6.95338-12.6666-8.29069-10.8746-1.15735 1.5413-.57868 4.48-1.19867 7.188-.74002 3.2347-2.09336 5.468-2.07734 7.1866.01465 1.6414 1.83332 4.2507 3.60932 7.6881 1.63467 3.1506 3.156 7.1306 4.86398 9.0466 1.8387 2.0573 8.6307 5.708 14.5573 8.2347 5.5787 2.3746 7.4787 2.1933 10.3694 3.6933 2.8907 1.4947 3.2453 6.8798 4.016 7.4738 5.5413 4.27 28.8906 1.182 33.2186-11.4698 2.172-6.3586-2.0159-10.364-1.7439-14.1453z" fill="#fff" stroke="#000" stroke-linejoin="round"/></svg>

﻿<?xml version="1.0" encoding="utf-8"?>
<!DOCTYPE svg PUBLIC "-//W3C//DTD SVG 1.1//EN" "http://www.w3.org/Graphics/SVG/1.1/DTD/svg11.dtd">
<svg xmlns="http://www.w3.org/2000/svg" xmlns:xlink="http://www.w3.org/1999/xlink" version="1.1" baseProfile="full" width="74.7387" height="104.783" viewBox="0 0 74.74 104.78" enable-background="new 0 0 74.74 104.78" xml:space="preserve">
	<path fill="#FFFFFF" fill-opacity="1" stroke-linejoin="round" stroke="#000000" stroke-opacity="1" d="M 71.8892,76.8799C 72.4145,69.4679 66.9825,49.2706 64.0918,44.8439C 62.6225,42.5879 61.7318,37.0679 56.6278,35.6719C 54.6172,35.1199 53.1545,35.6039 52.7118,35.7079C 52.7065,35.1092 51.0398,30.9119 47.0758,28.9532C 44.6278,27.7399 41.6545,28.8439 41.5505,28.8799C 41.4771,28.6092 40.7531,26.9839 36.6331,24.3799C 34.7585,23.1972 31.1652,21.1559 28.9452,22.5572C 28.7118,22.7025 28.5025,22.8546 28.2838,23.0252C 27.0345,24.0106 26.3358,25.2079 25.9358,26.3492C 25.3731,27.3639 25.3105,29.2599 25.3105,29.9586C 25.2892,30.0252 25.2745,30.0786 25.2425,30.0879C 25.1598,30.1306 23.3731,27.2812 21.3985,23.4012C 20.2785,21.1919 17.4465,18.9159 16.1905,16.5052C 16.0705,16.2706 13.3241,10.653 13.2094,10.4184L 11.8344,7.6684C 3.95944,5.5434 7.20944,13.9184 7.09714,17.8012L 7.19583,17.9892C 7.19583,17.9892 7.18515,17.9426 7.17447,17.8746L 7.22647,17.9266C 7.91449,20.8439 8.98782,24.0252 10.2785,26.9066C 13.4505,33.9586 15.7838,40.2186 16.7945,43.0879C 19.0705,49.5466 19.1745,67.8746 19.1745,67.8546L 17.8358,68.2919C 17.8358,68.2919 16.7691,65.6505 14.5652,62.8585C 14.6798,53.3279 7.61182,50.1919 6.27451,51.9839C 5.11716,53.5252 5.69583,56.4639 5.07584,59.1719C 4.33582,62.4066 2.98248,64.6399 2.9985,66.3585C 3.01315,67.9999 4.83182,70.6092 6.60782,74.0466C 8.24249,77.1972 9.76382,81.1772 11.4718,83.0932C 13.3105,85.1505 20.1025,88.8012 26.0291,91.3279C 31.6078,93.7025 33.5078,93.5212 36.3985,95.0212C 39.2892,96.5159 39.6438,101.901 40.4145,102.495C 45.9558,106.765 69.3051,103.677 73.6331,91.0252C 75.8051,84.6666 71.6172,80.6612 71.8892,76.8799 Z "/>
</svg>
